lending/img/lend/advantages_2.svg

<svg width="54" height="53" viewBox="0 0 54 53" fill="none" xmlns="http://www.w3.org/2000/svg">
<path fill-rule="evenodd" clip-rule="evenodd" d="M26.54 1.11338L27.0001 0.875L28.0395 1.41663C36.7634 6.02829 46.9707 13.4495 52.7366 19.7275L53.0695 20.09L52.835 21.4341L52.5311 23.1253L52.2228 24.7804L51.9096 26.3998C51.8569 26.6667 51.8041 26.9322 51.751 27.1962L51.4296 28.7627L51.1023 30.2944C51.0472 30.5468 50.9918 30.7977 50.9362 31.0473L50.5991 32.5276L50.255 33.974C48.632 40.6457 46.7657 46.2252 44.462 50.887L44.4461 50.8783C44.4139 51.0537 44.3557 51.1103 44.2321 51.1973L44.0243 51.3344L43.8877 51.3928L43.789 51.4228L43.6403 51.4581L43.2899 51.5268L42.7195 51.6254L42.125 51.719L41.3196 51.8353L40.4441 51.9507L39.5062 52.0634L39.0162 52.1181C35.3479 52.5181 31.2716 52.7472 27.0065 52.7197C22.7286 52.7472 18.6523 52.5181 14.9841 52.1181C14.8186 52.1001 14.6552 52.0818 14.4941 52.0634L13.5561 51.9507L12.6807 51.8353L11.8753 51.719L11.2807 51.6254L10.8837 51.558L10.4508 51.477L10.2429 51.4312L10.1127 51.3928L9.97642 51.3347L9.92197 51.3018L9.74699 51.1826C9.63906 51.1049 9.58611 51.0456 9.55408 50.8783L9.53819 50.887C7.23445 46.2252 5.36811 40.6457 3.74516 33.974L3.40104 32.5276L3.06394 31.0473C3.00832 30.7977 2.95298 30.5468 2.8979 30.2944L2.57055 28.7627C2.5165 28.5045 2.4627 28.2449 2.40914 27.9838L2.09058 26.3998L1.77735 24.7804L1.46902 23.1253L1.16518 21.4341L0.930664 20.09L1.26357 19.7275C5.10764 15.542 10.9257 10.8484 16.9621 6.81808L18.1717 6.02121C20.9986 4.18411 23.8475 2.50848 26.54 1.11338ZM27.1193 3.19246L27.0001 3.12927L26.297 3.50431C18.2875 7.82396 9.10304 14.4729 3.52637 20.2426L3.07008 20.7203L3.28296 21.9189L3.58471 23.5688L3.891 25.183C3.94245 25.4491 3.9941 25.7137 4.04597 25.9768L4.35979 27.5382C4.41255 27.7955 4.46553 28.0513 4.51875 28.3057L4.841 29.8149C4.8952 30.0636 4.94966 30.3108 5.00438 30.5566L5.33593 32.0143C5.39174 32.2545 5.44782 32.4932 5.50419 32.7305L5.84592 34.1376C7.34223 40.1624 9.04352 45.2473 11.0932 49.5125L11.1201 49.5683L11.3522 49.6095L12.1769 49.7418L12.9579 49.8546L13.8092 49.9668L14.7229 50.0765L15.2009 50.1299C18.7959 50.5219 22.7961 50.7467 27.0065 50.7198C31.2041 50.7467 35.2043 50.5219 38.7994 50.1299C38.9609 50.1123 39.1202 50.0945 39.2773 50.0765L40.1911 49.9668L41.0423 49.8546L41.8234 49.7418L42.1852 49.6857L42.8791 49.5683L43.142 49.0167C45.0872 44.8547 46.7155 39.9307 48.1542 34.1376L48.496 32.7305C48.5523 32.4932 48.6084 32.2545 48.6642 32.0143L48.9958 30.5566C49.0505 30.3108 49.105 30.0636 49.1592 29.8149L49.4814 28.3057C49.5346 28.0513 49.5876 27.7955 49.6404 27.5382L49.9542 25.9768C50.0061 25.7137 50.0577 25.4491 50.1092 25.183L50.4154 23.5688L50.7172 21.9189L50.9291 20.7203L50.4738 20.2427C44.7614 14.3325 35.2631 7.49964 27.1193 3.19246ZM4.91605 23.0565L5.37759 21.1194C5.63143 21.1553 5.88368 21.1907 6.13434 21.2256L8.34724 21.5266L10.4741 21.8015L12.5148 22.0501L13.8275 22.2013L15.1019 22.3408L16.9416 22.5283L18.1201 22.6388L19.2603 22.7376L20.3622 22.8248L21.4257 22.9004L22.4508 22.9643L23.4375 23.0166L24.3858 23.0573L25.2957 23.0864L26.1671 23.1038L27.0001 23.1096C27.3235 23.1096 27.6538 23.1069 27.9909 23.1013L29.0228 23.0766C29.1982 23.071 29.3754 23.0648 29.5542 23.058L30.6478 23.0084C30.8334 22.9987 31.0208 22.9884 31.2099 22.9774L32.3651 22.9029C32.5611 22.8892 32.7587 22.8747 32.9581 22.8595L34.1748 22.7603C34.9996 22.6886 35.8518 22.6059 36.7313 22.5122L38.071 22.3633C38.5244 22.3109 38.9846 22.2558 39.4517 22.1979L40.8733 22.0159L42.3359 21.8173C42.5831 21.7828 42.832 21.7477 43.0826 21.7118L44.6065 21.4884L46.1714 21.2484L46.9691 21.1221L47.4717 23.0483L27.7818 30.2795L40.8878 45.6467L39.4847 47.0621L27.0121 36.6119L13.8949 48.0493L12.4718 46.6526L26.2105 30.2892L4.91605 23.0565ZM14.8791 24.3283L26.9861 28.4403L38.0461 24.3793L36.8246 24.5136C33.2907 24.8873 30.1837 25.0853 27.502 25.1075L27.0001 25.1096C26.6964 25.1096 26.3851 25.1073 26.0663 25.1026L25.0869 25.0814C24.7528 25.072 24.4112 25.0603 24.0619 25.0462L22.9913 24.9968L21.8751 24.9334C21.6852 24.9217 21.4935 24.9093 21.2998 24.8964L20.1151 24.8118C19.9139 24.7966 19.7107 24.7807 19.5056 24.7643L18.2524 24.6586C18.0397 24.6398 17.8251 24.6204 17.6087 24.6004L16.2869 24.4736L14.8791 24.3283ZM27.0061 32.452L22.2701 38.0919L26.9872 33.9801L31.6211 37.865L27.0061 32.452Z" fill="#A5FF14"/>
</svg>

<svg width="54" height="53" fill="none" xmlns="http://www.w3.org/2000/svg"><path fill-rule="evenodd" clip-rule="evenodd" d="M26.54 1.113L27 .875l1.04.542c8.723 4.611 18.93 12.033 24.697 18.31l.332.363-.234 1.344-.304 1.691-.308 1.655-.313 1.62-.159.796-.321 1.567-.328 1.531c-.055.253-.11.504-.166.753l-.337 1.48-.344 1.447c-1.623 6.672-3.49 12.251-5.793 16.913l-.016-.009c-.032.176-.09.232-.214.32l-.208.136-.136.059-.099.03-.149.035-.35.069-.57.098-.595.094-.805.116-.876.116-.938.112-.49.055c-3.668.4-7.744.63-12.01.602a105.533 105.533 0 01-12.512-.657l-.938-.112-.875-.116-.806-.116-.594-.094-.397-.067-.433-.081-.208-.046-.13-.038-.137-.058-.054-.033-.175-.12a.405.405 0 01-.193-.304l-.016.009c-2.304-4.662-4.17-10.241-5.793-16.913l-.344-1.446-.337-1.48-.166-.754-.327-1.531-.162-.78-.318-1.583-.314-1.62-.308-1.655-.304-1.69-.234-1.345.333-.363c3.844-4.185 9.662-8.879 15.698-12.909l1.21-.797c2.827-1.837 5.675-3.513 8.368-4.908zm.58 2.08L27 3.128l-.703.375c-8.01 4.32-17.194 10.969-22.77 16.739l-.457.477.213 1.199.302 1.65.306 1.614.155.794.314 1.561.159.768.322 1.509.163.742.332 1.457.168.716.342 1.408c1.496 6.024 3.198 11.11 5.247 15.375l.027.055.232.041.825.133.78.113.852.112.914.11.478.053c3.595.392 7.595.617 11.805.59a103.568 103.568 0 0012.271-.643l.914-.11.851-.112.781-.113.362-.056.694-.118.263-.551c1.945-4.162 3.573-9.086 5.012-14.88l.342-1.407.168-.716.332-1.457.163-.742.322-1.51.16-.767.313-1.561.155-.794.306-1.614.302-1.65.212-1.199-.455-.477C44.76 14.333 35.264 7.5 27.119 3.193zM4.915 23.055l.462-1.937.756.107 2.213.3 2.127.276 2.04.248 1.314.151 1.274.14 1.84.187 1.178.11 1.14.1 1.102.087 1.064.075 1.025.064.986.053.949.04.91.03.871.017.833.006c.323 0 .654-.003.99-.009l1.033-.024.531-.019 1.094-.05.562-.03 1.155-.075.593-.043 1.217-.1a124.32 124.32 0 002.556-.248l1.34-.149c.453-.052.914-.107 1.38-.165l1.422-.182 1.463-.199.747-.105 1.523-.224 1.565-.24.798-.126.503 1.926-19.69 7.232 13.106 15.367-1.403 1.415-12.473-10.45-13.117 11.437-1.423-1.396L26.21 30.289 4.915 23.056zm9.963 1.272l12.107 4.112 11.06-4.06-1.221.134c-3.534.373-6.641.571-9.323.594L27 25.11c-.304 0-.615-.003-.934-.007l-.98-.022a83.96 83.96 0 01-1.024-.035l-1.07-.05-1.117-.063c-.19-.011-.381-.024-.575-.037l-1.185-.084-.61-.048-1.253-.105-.643-.059-1.322-.126-1.408-.146zm12.127 8.124l-4.736 5.64 4.717-4.112 4.634 3.885-4.615-5.413z" fill="#A5FF14"/></svg>
